src/shared/assets/icons/home-category/ic-food.svg

<svg width="100%" height="100%" viewBox="0 0 120 120" fill="none" xmlns="http://www.w3.org/2000/svg">
<path d="M42.8325 99.6513C49.1085 99.6513 54.1962 94.5636 54.1962 88.2876C54.1962 82.0115 49.1085 76.9238 42.8325 76.9238C36.5565 76.9238 31.4688 82.0115 31.4688 88.2876C31.4688 94.5636 36.5565 99.6513 42.8325 99.6513Z" fill="#587AFF"/>
<path d="M74.3022 99.6513C80.5782 99.6513 85.666 94.5636 85.666 88.2876C85.666 82.0115 80.5782 76.9238 74.3022 76.9238C68.0262 76.9238 62.9385 82.0115 62.9385 88.2876C62.9385 94.5636 68.0262 99.6513 74.3022 99.6513Z" fill="#587AFF"/>
<path fill-rule="evenodd" clip-rule="evenodd" d="M86.4513 23.882C87.371 21.8486 89.3964 20.542 91.6276 20.542H103.803C106.941 20.542 109.485 23.0859 109.485 26.2239C109.485 29.3619 106.941 31.9058 103.803 31.9058H95.2936L89.0939 45.6115C87.8004 48.4705 84.4338 49.7398 81.5748 48.4464C78.7158 47.1529 77.4465 43.7868 78.7398 40.9277L86.4513 23.882Z" fill="#587AFF"/>
<foreignObject x="5.34972" y="23.4122" width="107.307" height="76.4285"><div xmlns="http://www.w3.org/1999/xhtml" style="backdrop-filter:blur(6.63px);clip-path:url(#bgblur_0_68_50515_clip_path);height:100%;width:100%"></div></foreignObject><path data-figma-bg-blur-radius="13.2577" d="M37.8456 36.9756H80.1621C85.2525 36.9756 89.0416 36.9767 91.8788 37.3882C94.7099 37.7988 96.5408 38.6114 97.7605 40.1932C98.9793 41.7749 99.2991 43.752 98.9759 46.5942C98.6511 49.4432 97.6876 53.108 96.3925 58.0308L92.2516 73.7649C91.4459 76.825 90.8476 79.0981 90.1653 80.8288C89.4856 82.553 88.7331 83.7119 87.6342 84.5587C86.5362 85.4054 85.2234 85.8381 83.383 86.0567C81.5356 86.2761 79.1853 86.277 76.0211 86.277H41.9865C38.8223 86.277 36.472 86.2761 34.6246 86.0567C32.7843 85.8381 31.4717 85.4054 30.3732 84.5587C29.2748 83.7119 28.5217 82.5529 27.842 80.8288C27.1597 79.098 26.5605 76.825 25.7553 73.7649L21.6152 58.0308C20.3196 53.1079 19.3554 49.4432 19.0311 46.5942C18.7077 43.7519 19.0282 41.7749 20.2474 40.1932C21.4667 38.6114 23.2975 37.7988 26.1285 37.3882C28.9663 36.9767 32.7552 36.9756 37.8456 36.9756Z" fill="#587AFF" fill-opacity="0.6" stroke="url(#paint0_linear_68_50515)" stroke-width="0.611895"/>
<defs>
<clipPath id="bgblur_0_68_50515_clip_path" transform="translate(-5.34972 -23.4122)"><path d="M37.8456 36.9756H80.1621C85.2525 36.9756 89.0416 36.9767 91.8788 37.3882C94.7099 37.7988 96.5408 38.6114 97.7605 40.1932C98.9793 41.7749 99.2991 43.752 98.9759 46.5942C98.6511 49.4432 97.6876 53.108 96.3925 58.0308L92.2516 73.7649C91.4459 76.825 90.8476 79.0981 90.1653 80.8288C89.4856 82.553 88.7331 83.7119 87.6342 84.5587C86.5362 85.4054 85.2234 85.8381 83.383 86.0567C81.5356 86.2761 79.1853 86.277 76.0211 86.277H41.9865C38.8223 86.277 36.472 86.2761 34.6246 86.0567C32.7843 85.8381 31.4717 85.4054 30.3732 84.5587C29.2748 83.7119 28.5217 82.5529 27.842 80.8288C27.1597 79.098 26.5605 76.825 25.7553 73.7649L21.6152 58.0308C20.3196 53.1079 19.3554 49.4432 19.0311 46.5942C18.7077 43.7519 19.0282 41.7749 20.2474 40.1932C21.4667 38.6114 23.2975 37.7988 26.1285 37.3882C28.9663 36.9767 32.7552 36.9756 37.8456 36.9756Z"/>
</clipPath><linearGradient id="paint0_linear_68_50515" x1="57.6926" y1="36.7136" x2="107.223" y2="80.9997" gradientUnits="userSpaceOnUse">
<stop stop-color="white"/>
<stop offset="1" stop-color="white" stop-opacity="0"/>
</linearGradient>
</defs>
</svg>

<svg xmlns="http://www.w3.org/2000/svg" fill="none" viewBox="0 0 120 120"><path fill="#587aff" d="M42.833 99.651c6.276 0 11.363-5.087 11.363-11.363S49.11 76.924 42.833 76.924 31.469 82.01 31.469 88.288c0 6.276 5.087 11.363 11.364 11.363m31.469 0c6.276 0 11.364-5.087 11.364-11.363s-5.088-11.364-11.364-11.364-11.364 5.087-11.364 11.364c0 6.276 5.088 11.363 11.364 11.363"/><path fill="#587aff" fill-rule="evenodd" d="M86.451 23.882a5.68 5.68 0 0 1 5.177-3.34h12.175a5.682 5.682 0 0 1 0 11.364h-8.51l-6.2 13.706a5.682 5.682 0 0 1-10.353-4.684z" clip-rule="evenodd"/><foreignObject width="107.307" height="76.428" x="5.35" y="23.412"><div xmlns="http://www.w3.org/1999/xhtml" style="backdrop-filter:blur(6.63px);clip-path:url(#a);height:100%;width:100%"/></foreignObject><path fill="#587aff" fill-opacity=".6" stroke="url(#b)" stroke-width=".612" d="M37.846 36.976h42.316c5.09 0 8.88 0 11.717.412 2.83.41 4.662 1.223 5.881 2.805s1.54 3.559 1.216 6.401c-.325 2.85-1.288 6.514-2.584 11.437l-4.14 15.734c-.806 3.06-1.404 5.333-2.087 7.064-.68 1.724-1.432 2.883-2.53 3.73-1.099.846-2.412 1.28-4.252 1.498-1.847.22-4.198.22-7.362.22H41.987c-3.165 0-5.515 0-7.362-.22-1.84-.219-3.153-.652-4.252-1.498-1.098-.847-1.851-2.006-2.531-3.73-.682-1.731-1.281-4.004-2.087-7.064l-4.14-15.734c-1.295-4.923-2.26-8.588-2.584-11.437-.323-2.842-.003-4.82 1.216-6.4 1.22-1.583 3.05-2.395 5.881-2.806 2.838-.411 6.627-.412 11.718-.412Z" data-figma-bg-blur-radius="13.258"/><defs><linearGradient id="b" x1="57.693" x2="107.223" y1="36.714" y2="81" gradientUnits="userSpaceOnUse"><stop stop-color="#fff"/><stop offset="1" stop-color="#fff" stop-opacity="0"/></linearGradient><clipPath id="a" transform="translate(-5.35 -23.412)"><path d="M37.846 36.976h42.316c5.09 0 8.88 0 11.717.412 2.83.41 4.662 1.223 5.881 2.805s1.54 3.559 1.216 6.401c-.325 2.85-1.288 6.514-2.584 11.437l-4.14 15.734c-.806 3.06-1.404 5.333-2.087 7.064-.68 1.724-1.432 2.883-2.53 3.73-1.099.846-2.412 1.28-4.252 1.498-1.847.22-4.198.22-7.362.22H41.987c-3.165 0-5.515 0-7.362-.22-1.84-.219-3.153-.652-4.252-1.498-1.098-.847-1.851-2.006-2.531-3.73-.682-1.731-1.281-4.004-2.087-7.064l-4.14-15.734c-1.295-4.923-2.26-8.588-2.584-11.437-.323-2.842-.003-4.82 1.216-6.4 1.22-1.583 3.05-2.395 5.881-2.806 2.838-.411 6.627-.412 11.718-.412"/></clipPath></defs></svg>
